img/star-2.svg

<svg width="18" height="18" viewBox="0 0 18 18" fill="none" xmlns="http://www.w3.org/2000/svg">
<path d="M8.26134 1.27594C8.53462 0.618909 9.46538 0.618909 9.73866 1.27594L11.5896 5.72623C11.7048 6.00321 11.9653 6.19247 12.2644 6.21644L17.0688 6.60161C17.7781 6.65848 18.0658 7.54369 17.5253 8.00662L13.8648 11.1422C13.637 11.3374 13.5375 11.6436 13.6071 11.9354L14.7255 16.6237C14.8906 17.3159 14.1376 17.863 13.5303 17.4921L9.417 14.9797C9.16099 14.8233 8.83901 14.8233 8.583 14.9797L4.46971 17.4921C3.86243 17.863 3.10943 17.3159 3.27454 16.6237L4.39288 11.9354C4.46249 11.6436 4.36299 11.3374 4.13516 11.1422L0.474672 8.00662C-0.0657579 7.54369 0.221862 6.65848 0.931186 6.60161L5.73564 6.21644C6.03467 6.19247 6.29516 6.00321 6.41037 5.72623L8.26134 1.27594Z" fill="#F2BD42"/>
</svg>

<svg width="18" height="18" fill="none" xmlns="http://www.w3.org/2000/svg"><path d="M8.261 1.276a.8.8 0 011.478 0l1.85 4.45a.8.8 0 00.675.49l4.805.386a.8.8 0 01.456 1.405l-3.66 3.135a.8.8 0 00-.258.793l1.119 4.689a.8.8 0 01-1.196.868L9.417 14.98a.8.8 0 00-.834 0L4.47 17.492a.8.8 0 01-1.195-.868l1.118-4.689a.8.8 0 00-.258-.793L.475 8.007A.8.8 0 01.93 6.602l4.805-.386a.8.8 0 00.674-.49l1.851-4.45z" fill="#F2BD42"/></svg>
